X: 35920
T: Sandy's New Chanter
R: hornpipe
M: 4/4
K: Dmajor
A2|f2ef fAef|g2fg B3g|fAdf fa^ga|eAce ea=ge|
f2ef fAef|g2fg B3g|fAdf eAce|d4 d2:|
|:A2|a2fa dffA|g2fg B3g|fAdf fa^ga|eAce ea=ge|
a2fa dffA|g2fg B3g|fAdf eAce|d4 d2:|
|:A2|fA A/A/A AffA|g2fg- gBdg|fA A/A/A fa^ga|eAce ea=ge|
fA A/A/A AffA|gBdg- gBdg|fAdf eAce|d4 d2:|
|:A2|a2a2 fgaf|gBdg Bdge|fA A/A/A fa^ga|eAce ea=ge|
a2a2 fgaf|gBdg Bdge|fAdf eAce|d4 d2:|

